X: 59
T: JIG: Rolling Waves or Lonesome
T: Maguire's Clan March
C: C: Trad.; S: Polca an Rí
C: Set Leaders: Sophie, Anton
Z: [Unedited]; NfldWhistler at The Session
N: https://thesession.org/members/26966/sets/99584
R: Jig
M: 6/8
L: 1/8
Q: 3/8=116
K: Dmaj
|:F2E EDE|F2D DED|F2E EFA|d2e fdA|
F2E EDE|F2D DED|AFE EFA|1 BAB d2A:|2 BAB d3||
|:AB/c/d e2f|d2c B2d|AB/c/d e2f|d2c B2d|
AB/c/d ede|fdB BAF|AFE EFA|1 BAB d3:|2 d2e fdA||

